icons/thermometer-fill.svg

<svg viewBox="0 0 24 24" fill="currentColor" xmlns="http://www.w3.org/2000/svg"><path d="M20.5565 3.44367C22.1186 5.00576 22.1186 7.53842 20.5565 9.10052L12.3563 17.3008C11.714 17.943 10.8723 18.3476 9.96957 18.4479L6.59094 18.8221L4.29304 21.1213C3.90252 21.5119 3.26936 21.5119 2.87883 21.1213C2.48831 20.7308 2.48831 20.0976 2.87883 19.7071L5.17694 17.4081L5.55231 14.0306C5.65261 13.1279 6.05716 12.2862 6.69942 11.6439L14.8996 3.44367C16.4617 1.88157 18.9944 1.88157 20.5565 3.44367ZM11.3641 12.6361L9.9499 14.0503L12.0712 16.1716L13.4854 14.7574L11.3641 12.6361ZM14.1925 9.80763L12.7783 11.2218L14.8996 13.3432L16.3139 11.9289L14.1925 9.80763ZM17.021 6.9792L15.6068 8.39341L17.7281 10.5147L19.1423 9.10052L17.021 6.9792Z"/></svg>

<svg xmlns="http://www.w3.org/2000/svg" viewBox="0 0 24 24">
    <g>
        <path fill="none" d="M0 0H24V24H0z"/>
        <path d="M20.556 3.444c1.562 1.562 1.562 4.094 0 5.657l-8.2 8.2c-.642.642-1.484 1.047-2.387 1.147l-3.378.374-2.298 2.3c-.39.39-1.024.39-1.414 0-.39-.391-.39-1.024 0-1.415l2.298-2.299.375-3.377c.1-.903.505-1.745 1.147-2.387l8.2-8.2c1.563-1.562 4.095-1.562 5.657 0zm-9.192 9.192L9.95 14.05l2.121 2.122 1.414-1.415-2.121-2.121zm2.828-2.828l-1.414 1.414 2.121 2.121 1.415-1.414-2.122-2.121zm2.829-2.829l-1.414 1.414 2.12 2.122L19.143 9.1l-2.121-2.122z"/>
    </g>
</svg>
